svg/fluentui-system-icons/ic_fluent_building_bank_link_48_regular.svg

<svg width="48" height="48" viewBox="0 0 48 48" fill="none" xmlns="http://www.w3.org/2000/svg">
<path d="M24 14.0015C25.1046 14.0015 26 13.1061 26 12.0016C26 10.897 25.1046 10.0017 24 10.0017C22.8954 10.0017 22 10.897 22 12.0016C22 13.1061 22.8954 14.0015 24 14.0015ZM25.3459 4.44693C24.5476 3.85103 23.4524 3.85102 22.6541 4.4469L6.70854 16.3487C5.3592 17.3559 6.07155 19.501 7.75534 19.501H9V31.5058C7.22629 32.3484 6 34.1562 6 36.2504V39.7502C6 40.4405 6.55964 41.0001 7.25 41.0001H22.8723C22.4901 40.2291 22.2221 39.3879 22.0912 38.5002H8.5V36.2504C8.5 34.7316 9.73122 33.5005 11.25 33.5005H22.8723C23.4389 32.3575 24.2564 31.3688 25.25 30.6116V19.501H29.5V29.0166C29.6654 29.0061 29.8321 29.0007 30 29.0007H32V19.501H36.5V29.0007H39V19.501H40.2439C41.9277 19.501 42.6401 17.3559 41.2908 16.3488L25.3459 4.44693ZM22.75 31.0006H18.5V19.501H22.75V31.0006ZM16 31.0006H11.5V19.501H16V31.0006ZM10.0139 17.0011L24 6.56184L37.9854 17.0011H10.0139ZM30.25 31.0006C26.7982 31.0006 24 33.7987 24 37.2503C24 40.7019 26.7982 43.5 30.25 43.5H31.75C32.4404 43.5 33 42.9404 33 42.2501C33 41.5597 32.4404 41.0001 31.75 41.0001H30.25C28.1789 41.0001 26.5 39.3213 26.5 37.2503C26.5 35.1793 28.1789 33.5005 30.25 33.5005H31.75C32.4404 33.5005 33 32.9409 33 32.2506C33 31.5602 32.4404 31.0006 31.75 31.0006H30.25ZM39.75 31.0006C43.2018 31.0006 46 33.7987 46 37.2503C46 40.7019 43.2018 43.5 39.75 43.5H38.25C37.5596 43.5 37 42.9404 37 42.2501C37 41.5597 37.5596 41.0001 38.25 41.0001H39.75C41.8211 41.0001 43.5 39.3213 43.5 37.2503C43.5 35.1793 41.8211 33.5005 39.75 33.5005H38.25C37.5596 33.5005 37 32.9409 37 32.2506C37 31.5602 37.5596 31.0006 38.25 31.0006H39.75ZM29 37.2503C29 36.56 29.5596 36.0004 30.25 36.0004H39.75C40.4404 36.0004 41 36.56 41 37.2503C41 37.9406 40.4404 38.5002 39.75 38.5002H30.25C29.5596 38.5002 29 37.9406 29 37.2503Z" fill="#212121"/>
</svg>

<svg xmlns="http://www.w3.org/2000/svg" width="48" height="48"><path d="M24 14.002a2 2 0 1 0 0-4 2 2 0 0 0 0 4Zm1.346-9.555a2.25 2.25 0 0 0-2.692 0L6.71 16.349c-1.35 1.007-.637 3.152 1.046 3.152H9v12.005a5.25 5.25 0 0 0-3 4.744v3.5c0 .69.56 1.25 1.25 1.25h15.622a8.375 8.375 0 0 1-.78-2.5H8.5v-2.25a2.75 2.75 0 0 1 2.75-2.75h11.622a8.225 8.225 0 0 1 2.378-2.888V19.5h4.25v9.516A7.89 7.89 0 0 1 30 29h2v-9.5h4.5V29H39v-9.5h1.244c1.684 0 2.396-2.145 1.047-3.152L25.346 4.447ZM22.75 31H18.5V19.5h4.25V31ZM16 31h-4.5V19.5H16V31Zm-5.986-14L24 6.561l13.985 10.44H10.014ZM30.25 31a6.25 6.25 0 1 0 0 12.499h1.5a1.25 1.25 0 1 0 0-2.5h-1.5a3.75 3.75 0 1 1 0-7.5h1.5a1.25 1.25 0 1 0 0-2.5h-1.5Zm9.5 0a6.25 6.25 0 1 1 0 12.499h-1.5a1.25 1.25 0 1 1 0-2.5h1.5a3.75 3.75 0 1 0 0-7.5h-1.5a1.25 1.25 0 1 1 0-2.5h1.5ZM29 37.25c0-.691.56-1.25 1.25-1.25h9.5a1.25 1.25 0 1 1 0 2.5h-9.5c-.69 0-1.25-.56-1.25-1.25Z"/></svg>
